!!!COM: Haydn, Franz Joseph
!!!OTL: String Quartet in G Major
!!!OPS: Opus 77
!!!ONM: No. 1
!!!OMD: Finale: Presto
!!!OMV: 4
!!!SCT: H III:81
!!!SCA: Thematisch-bibliographisches Werkevererzeichnis (A. van Hoboken)
!!!YOR: Trautwein Edition
!!!ENC: Frances Bennion
!!!CDT: 1732/3/31/-1809/5/31/
!!!CNT: Oesterreich
!!!YEC: Copyright (c) 1994, 2000 Center for Computer Assisted Research in the Humanities
!!!YEM: Rights to all derivative editions reserved.
!!!YEM: Refer to licensing agreement for further details.
!!!YEN: United States of America
**kern	**kern	**kern	**kern
*k[f#]	*k[f#]	*k[f#]	*k[f#]
*G:	*G:	*G:	*G:
*clefF4	*clefC3	*clefF	*clefF
*M2/4	*M2/4	*M2/4	*M2/4
4.r	4.r	4.r	4.r
8d	8d	8dd	8dd
=1	=1	=1	=1
8c#	8c#	8cc#	8cc#
8d	8d	8dd	8dd
8A	8A	8a	8a
8B	8B	8b	8b
=2	=2	=2	=2
4.E	4.E	4.e	4.e
16F#	16F#	16f#	16f#
16G	16G	16g	16g
=3	=3	=3	=3
8A	8A	8a	8a
8D	8D	8d	8d
8E	8E	8e	8e
8F#	8F#	8f#	8f#
=4	=4	=4	=4
16G	16G	16g	16g
16F#	16F#	16f#	16f#
16G	16G	16g	16g
16A	16A	16a	16a
8B	8B	8b	8b
8d	8d	8dd	8dd
=5	=5	=5	=5
8c#	8c#	8cc#	8cc#
8d	8d	8dd	8dd
8A	8A	8a	8a
8B	8B	8b	8b
=6	=6	=6	=6
4.E	4.E	4.e	4.e
16F#	16F#	16f#	16f#
16G	16G	16g	16g
=7	=7	=7	=7
8A	8A	8a	8a
8D	8D	8d	8d
8E	8E	8e	8e
8F#	8F#	8f#	8f#
=8	=8	=8	=8
4G	4G	4g	4g
8GG	8g	8G	8G
8r	8r	8r	8dd
=9	=9	=9	=9
2r	2r	2r	8cc#
.	.	.	8dd
.	.	.	8a
.	.	.	8b
=10	=10	=10	=10
[2D	[2A	[2c	4.e
.	.	.	16f#
.	.	.	16g
=11	=11	=11	=11
2D]	2A]	2c]	8a
.	.	.	8d
.	.	.	8e
.	.	.	8f#
=12	=12	=12	=12
4GG	4G	4B	16g
.	.	.	16f#
.	.	.	16g
.	.	.	16a
4r	4r	4r	8b
.	.	.	8dd
=13	=13	=13	=13
2r	2r	2r	8cc#
.	.	.	8dd
.	.	.	8a
.	.	.	8b
=14	=14	=14	=14
[2D	[2A	[2c	4.e
.	.	.	16f#
.	.	.	16g
=15	=15	=15	=15
2D]	2A]	2c]	8a
.	.	.	8d
.	.	.	8e
.	.	.	8f#
=16	=16	=16	=16
4G	4G	4B	16g
.	.	.	16f#
.	.	.	16g
.	.	.	16a
4r	4r	4r	8g
.	.	.	8b
=17	=17	=17	=17
4G	4B	4d	16g
.	.	.	16f#
.	.	.	16g
.	.	.	16a
4r	4r	4r	8g
.	.	.	8dd
=18	=18	=18	=18
4G	4d	4g	16b
.	.	.	16a
.	.	.	16b
.	.	.	16cc
8r	8r	8r	8b
8GG	8dd	8B	8gg
=19	=19	=19	=19
4B	4G	4b	16dd
.	.	.	16cc#
.	.	.	16dd
.	.	.	16ee
8r	8r	8r	8dd
8GG	8dd	8d	8bb
=20	=20	=20	=20
4B	4G	4dd	16gg
.	.	.	16ff#
.	.	.	16gg
.	.	.	16aa
4r	4r	4r	8gg
.	.	.	8ddd
=21	=21	=21	=21
2r	2r	2r	8ccc#
.	.	.	8ddd
.	.	.	8aa
.	.	.	8bb
=22	=22	=22	=22
2c#	2e	2g	4.ee
.	.	.	16ff#
.	.	.	16gg
=23	=23	=23	=23
2c	[2d	4f#	8aa
.	.	.	8dd
.	.	8g	8ee
.	.	8a	8ff#
=24	=24	=24	=24
4B	4d]	4g	16gg
.	.	.	16ff#
.	.	.	16gg
.	.	.	16aa
4r	4r	4r	8bb
.	.	.	8ddd
=25	=25	=25	=25
2r	2r	2r	8ccc#
.	.	.	8ddd
.	.	.	8aa
.	.	.	8bb
=26	=26	=26	=26
2r	[2f#	2cc	4.ee
.	.	.	16ff#
.	.	.	16gg
=27	=27	=27	=27
2B	4f#]	8d#	8aa
.	.	8a	8dd#
.	8e	8g	8ee
.	8a	8d#	8ff#
=28	=28	=28	=28
2E	4g	16e	16gg
.	.	16d#	16ff#
.	.	16e	16gg
.	.	16f#	16aa
.	8r	8g	8bb
.	16g	16e	16ee
.	16f#	16d	16ff#
=29	=29	=29	=29
2A	4e	8c#	8gg
.	.	8g	8cc#
.	8d	8f#	8dd
.	8g	8c#	8ee
=30	=30	=30	=30
4D	4f#	16d	16ff#
.	.	16c#	16ee
.	.	16d	16ff#
.	.	16e	16gg
8r	8r	8f#	8aa
8d	8f#	8r	8r
=31	=31	=31	=31
8c#	8e#	8r	4.r
8d	8f#	8ff#	.
8A#	4r	8cc#	.
8B	.	8dd	[8dd
=32	=32	=32	=32
8F#	4.r	8a#	8dd]
8G	.	8b	8b
8r	.	8f#	8dd#
8e	8g	8g	8ee
=33	=33	=33	=33
8d#	8f#	8r	4.r
8e	8g	8gg	.
8B	4r	8dd#	.
8c#	.	8ee	[8ee
=34	=34	=34	=34
8G#	4.r	8b	8ee]
8A	.	8cc#	8cc#
4r	.	8g#	8ee#
.	8f#	8a	8ff#
=35	=35	=35	=35
2r	8e#	4.r	8r
.	8f#	.	8aa
.	8c#	.	8ee#
.	8d	[8f#	8ff#
=36	=36	=36	=36
2r	8A#	8f#]	8cc#
.	8B	8d	8dd
.	8r	8f#	8a#
.	8g	8g	8b
=37	=37	=37	=37
2r	8f#	4.r	8r
.	8g	.	8bb
.	8d#	.	8ff#
.	8e	8b	8gg
=38	=38	=38	=38
2r	8a	8f#	8dd#
.	8g	8g	8ee
.	8d#	8a	8ff#
.	8e	8g	8gg
=39	=39	=39	=39
2r	8a	8f#	8dd#
.	8g	8e	8ee
.	8e	8g	8bb
.	8g#	8b	8dd
=40	=40	=40	=40
[2AA	8a	2e	8cc#
.	8c#	.	8aa
.	8c#	.	8gg#
.	8c#	.	8aa
=41	=41	=41	=41
2AA_	2d	2G# 2f	8ee
.	.	.	8ff
.	.	.	8cc#
.	.	.	8dd
=42	=42	=42	=42
2AA_	2c#	2A 2e	8a
.	.	.	8aa
.	.	.	8gg#
.	.	.	8aa
=43	=43	=43	=43
2AA_	2d	2G# 2f	8ee
.	.	.	8ff
.	.	.	8cc#
.	.	.	8dd
=44	=44	=44	=44
4AA]	4c#	8A 8e	8a
.	.	8a	8aa
4r	4r	8g#	8gg#
.	.	8a	8aa
=45	=45	=45	=45
2r	2r	8e	8ee
.	.	8f	8ff
.	.	8c#	8cc#
.	.	8d	8dd
=46	=46	=46	=46
8r	8r	8G#	8g#
8A	8a	8A	8a
8E	8e	8e	8e
8F	8f	8f	8f
=47	=47	=47	=47
8C#	8c#	8c#	8c#
8D	8d	8d	8d
8AA	8A	8A	8A
8BB-	8B-	8B-	8B-
=48	=48	=48	=48
8GG#	8G#	8G#	8G#
8AA	8A	8A	8A
16E	16e	16e	16e
16F	16f	16f	16f
16E	16e	16e	16e
16F	16f	16f	16f
=49	=49	=49	=49
8C#	8c#	8c#	8c#
8D	8d	8d	8d
8AA	8A	8A	8A
8BB-	8B-	8B-	8B-
=50	=50	=50	=50
8GG#	8G#	8G#	8G#
8AA	8A	8A	8A
8BB	8B	8B	8B
8C	8c	8c	8c
=51	=51	=51	=51
8AA#	8A#	8A#	8A#
8BB	8B	8B	8B
8C#	8c#	8c#	8c#
8D	8d	8d	8d
=52	=52	=52	=52
8D#	8d#	8d#	8d#
8E	8e	8e	8e
8F#	8f#	8f#	8f#
8G	8g	8g	8g
=53	=53	=53	=53
8G#	8g#	8g#	8g#
8A	8a	8a	8a
8G	8d	8b	8b
8E	8e	8e	8cc#
=54	=54	=54	=54
4D	4A	8g	8ee
.	.	8f#	8dd
4r	8r	8b	8gg
.	8d	8a	8ff#
=55	=55	=55	=55
4.r	8cc#	8gg	8bb
.	8dd	8ff#	8aa
.	8cc#	8gg	8bb
8D	8dd	8ff#	8aa
=56	=56	=56	=56
[2d	8cc#	8gg	8bb
.	8dd	8ff#	8aa
.	8a	8f#	8ddd
.	8a	8f#	8ccc
=57	=57	=57	=57
2d_	2b	2g	8aa#
.	.	.	8bb
.	.	.	8ff#
.	.	.	8gg
=58	=58	=58	=58
2d_	2g	2cc#	4.ee
.	.	.	16ff#
.	.	.	16gg
=59	=59	=59	=59
2d_	4f#	4cc	8aa
.	.	.	8dd
.	8g	8b	8ee
.	8a	8cc	8ff#
=60	=60	=60	=60
4d]	4g	4.b	16gg
.	.	.	16ff#
.	.	.	16gg
.	.	.	16aa
8r	8r	.	8bb
8DD	8cc#	8gg	8bb
=61	=61	=61	=61
8DD	8cc#	8ff#	8aa
8DD	8cc#	8gg	8bb
8DD	8cc#	8ff#	8aa
8DD	8cc#	8ee	8gg
=62	=62	=62	=62
4DD	4.dd	16dd	16ff#
.	.	16cc#	16ee
.	.	16dd	16ff#
.	.	16ee	16gg
8r	.	8ff#	8aa
8d	8cc#	8gg	8bb
=63	=63	=63	=63
8d	8cc#	8ff#	8aa
8d	8cc#	8gg	8bb
8d	8cc#	8ff#	8aa
8d	8cc#	8ee	8gg
=64	=64	=64	=64
2d	8dd	8dd	16ff#
.	.	.	16gg
.	8f#	4a	16aa
.	.	.	16ff#
.	8f#	.	16dd
.	.	.	16a
.	8f#	[8a	16dd
.	.	.	16ff#
=65	=65	=65	=65
2c#	2e	8a]	16gg
.	.	.	16ff#
.	.	4a	16gg
.	.	.	16ee
.	.	.	16cc#
.	.	.	16a
.	.	[8a	16gg
.	.	.	16bb
=66	=66	=66	=66
2d	2f#	8a]	16aa
.	.	.	16gg#
.	.	4a	16aa
.	.	.	16ff#
.	.	.	16dd
.	.	.	16a
.	.	[8a	16dd
.	.	.	16ff#
=67	=67	=67	=67
2c#	2e	8a]	16gg
.	.	.	16ff#
.	.	4a	16gg
.	.	.	16ee
.	.	.	16cc#
.	.	.	16a
.	.	[8a	16gg
.	.	.	16bb
=68	=68	=68	=68
2d	[2f#	8a]	16aa
.	.	.	16gg#
.	.	4dd	16aa
.	.	.	16ff#
.	.	.	16dd
.	.	.	16a
.	.	[8dd	16dd
.	.	.	16ff#
=69	=69	=69	=69
2B	2f#]	8dd]	16aa
.	.	.	16gg#
.	.	4dd	16aa
.	.	.	16ff#
.	.	.	16dd
.	.	.	16b
.	.	[8dd	16dd
.	.	.	16ff#
=70	=70	=70	=70
2E	2b	8dd]	16gg
.	.	.	16ff#
.	.	4dd	16gg
.	.	.	16dd
.	.	.	16b
.	.	.	16gg
.	.	8dd	16bb
.	.	.	16aa
=71	=71	=71	=71
2A	2e	8cc#	16gg
.	.	.	16ff#
.	.	4cc#	16gg
.	.	.	16ee
.	.	.	16cc#
.	.	.	16a
.	.	8cc#	16g
.	.	.	16a
=72	=72	=72	=72
2B	8d	8dd	16f#
.	.	.	16dd
.	8f#	4dd	16f#
.	.	.	16dd
.	8e#	.	16e#
.	.	.	16dd
.	8f#	8dd	16f#
.	.	.	16dd
=73	=73	=73	=73
2A	8r	8r	16e#
.	.	.	16dd
.	8f#	4dd	16f#
.	.	.	16dd
.	8e#	.	16e#
.	.	.	16dd
.	8f#	8dd	16f#
.	.	.	16dd
=74	=74	=74	=74
2G	8r	8r	16e
.	.	.	16dd
.	8f	4dd	16f
.	.	.	16dd
.	8e	.	16e
.	.	.	16dd
.	8f	8dd	16f
.	.	.	16dd
=75	=75	=75	=75
2G#	8r	8r	16e
.	.	.	16dd
.	8f	4dd	16f
.	.	.	16dd
.	8e	.	16e
.	.	.	16dd
.	8f	8dd	16f
.	.	.	16dd
=76	=76	=76	=76
8A	8e	8cc#	16cc#
.	.	.	16b
8r	8r	8r	16cc#
.	.	.	16a
8A	8c#	8ee	16gg
.	.	.	16ff#
8r	8r	8r	16gg
.	.	.	16ee
=77	=77	=77	=77
8G	8e	8a	16ccc#
.	.	.	16bb
8r	8r	8r	16ccc#
.	.	.	16aa
8G	8a	4ccc#	16eee
.	.	.	16ddd
8r	8r	.	16eee
.	.	.	16ccc#
=78	=78	=78	=78
4F#	4a	4ddd	16ddd
.	.	.	16ccc#
.	.	.	16ddd
.	.	.	16ccc#
4r	4b	[4dd	8ddd
.	.	.	8fff#
=79	=79	=79	=79
2r	4g	4dd]	16eee
.	.	.	16ddd#
.	.	.	16eee
.	.	.	16ddd#
.	4a	4cc#	8eee
.	.	.	8ggg
=80	=80	=80	=80
2r	8d	8dd	8fff#
.	8c#	4aa	16ggg
.	.	.	16eee
.	8d	.	8fff#
.	8c#	[8aa	16ggg
.	.	.	16eee
=81	=81	=81	=81
2r	8d	8aa]	8fff#
.	8a	8gg	8ccc#
.	8b	8ff#	8ddd
.	8f#	8ee	8aa#
=82	=82	=82	=82
2r	8g	8dd	8bb
.	8d#	8cc	8ff#
.	8e	8b	8gg
.	8f#	8a	8dd#
=83	=83	=83	=83
4GG	4g	8b	8ee
.	.	8g	8bb
4r	4r	8b	8gg
.	.	8g	8ee
=84	=84	=84	=84
4AA	4a	8f#	8dd
.	.	8a	8aa
4r	4r	8dd	8ff#
.	.	8f#	8dd
=85	=85	=85	=85
4AA	4g	8e	8cc#
.	.	8g	8gg
4r	4r	8cc#	8ee
.	.	8e	8cc#
=86	=86	=86	=86
2D	2f#	16f#	4dd
.	.	16d	.
.	.	16c#	.
.	.	16d	.
.	.	16c#	4r
.	.	16d	.
.	.	16e	.
.	.	16d	.
=87	=87	=87	=87
2BB	[2D	16f#	2r
.	.	16d	.
.	.	16c#	.
.	.	16d	.
.	.	16c#	.
.	.	16d	.
.	.	16e	.
.	.	16d	.
=88	=88	=88	=88
2GG	2D_	16c#	2r
.	.	16B	.
.	.	16A#	.
.	.	16B	.
.	.	16c#	.
.	.	16d	.
.	.	16e	.
.	.	16f#	.
=89	=89	=89	=89
4EE	4D]	16g	2r
.	.	16f#	.
.	.	16e	.
.	.	16f#	.
4AA	8C#	16g	.
.	.	16a	.
.	16g	16b	.
.	16e	16cc#	.
=90	=90	=90	=90
4DD	2d	8dd	16ff#
.	.	.	16dd
.	.	8f#	16cc#
.	.	.	16dd
4r	.	8a	16cc#
.	.	.	16dd
.	.	8f#	16ee
.	.	.	16dd
=91	=91	=91	=91
2r	2B	[2d	16ff#
.	.	.	16dd
.	.	.	16cc#
.	.	.	16dd
.	.	.	16cc#
.	.	.	16dd
.	.	.	16ee
.	.	.	16dd
=92	=92	=92	=92
2r	2G	2d_	16cc#
.	.	.	16b
.	.	.	16a#
.	.	.	16b
.	.	.	16cc#
.	.	.	16dd
.	.	.	16ee
.	.	.	16ff#
=93	=93	=93	=93
2r	4E	4d]	16gg
.	.	.	16ff#
.	.	.	16ee
.	.	.	16ff#
.	[4A	8c#	16gg
.	.	.	16aa
.	.	16g	16bb
.	.	16e	16ccc#
=94	=94	=94	=94
8d	8A]	8f#	16ddd
.	.	.	16ccc#
8d	8a	8dd	16ddd
.	.	.	16aa
8A	16g	16cc#	8eee
.	16f#	16dd	.
8A	16g	16ee	8eee
.	16G	16cc#	.
=95	=95	=95	=95
8D	8F#	8dd	8fff#
8D	8f#	8a	8fff#
8A	16e	16cc#	16ggg
.	16d	16dd	16fff#
8A	16c#	16ee	16ggg
.	16c#	16gg	16eee
=96	=96	=96	=96
8D	8d	8ff#	16ddd
.	.	.	16fff#
8d	8d	8a	16ddd
.	.	.	16fff#
8AA	16g	16cc#	8eee
.	16f#	16dd	.
8A	16g	16ee	8eee
.	16G	16cc#	.
=97	=97	=97	=97
8DD	8F#	8dd	8fff#
8D	8f#	8a	8fff#
8AA	16e	16cc#	16ggg
.	16d	16dd	16fff#
8A	16c#	16ee	16ggg
.	16c#	16gg	16eee
=98	=98	=98	=98
8DD	8d	8ff#	8fff#
8D	8f#	8a	8fff#
8AA	16e	16cc#	16ggg
.	16d	16dd	16fff#
8A	16c#	16ee	16ggg
.	16c#	16gg	16eee
=99	=99	=99	=99
4D	4d	4ff#	4ddd
4DD	4A	4dd 4f#	4fff#
=100	=100	=100	=100
4DD	4A	4f# 4dd	4d
4r	4r	4r	4r
=101	=101	=101	=101
4DD	4A	4dd 4f#	4d
4r	4r	4r	8r
.	.	.	8aa
=102	=102	=102	=102
2r	2r	2r	8gg#
.	.	.	8aa
.	.	.	8ee
.	.	.	8ff#
=103	=103	=103	=103
[2A	[2e	[2g	4.b
.	.	.	16cc#
.	.	.	16dd
=104	=104	=104	=104
2A]	2e]	2g]	8ee
.	.	.	8a
.	.	.	8b
.	.	.	8cc#
=105	=105	=105	=105
4D	4f#	4f#	16dd
.	.	.	16cc#
.	.	.	16dd
.	.	.	16ee
4r	4r	4r	8ff#
.	.	.	8aa
=106	=106	=106	=106
2r	2r	2r	8gg#
.	.	.	8aa
.	.	.	8ee
.	.	.	8ff#
=107	=107	=107	=107
[2A	[2e	[2g	4.b
.	.	.	16cc#
.	.	.	16dd
=108	=108	=108	=108
2A]	2e]	2g]	8ee
.	.	.	8a
.	.	.	8b
.	.	.	8cc#
=109	=109	=109	=109
4D	4f#	4f#	4dd
4r	4r	8r	8d
.	.	8ff#	8aa
=110	=110	=110	=110
2r	2r	8ee#	8gg#
.	.	8ff#	8aa
.	.	8cc#	8ee
.	.	8dd	8ff#
=111	=111	=111	=111
8r	8r	8g	8cc#
8B	8d	8f#	8dd
8A#	8c#	4r	4r
8B	8d	.	.
=112	=112	=112	=112
8F#	8A#	4.r	4.r
8G	8B	.	.
8D#	8F#	.	.
8E	8G	8gg	8bb
=113	=113	=113	=113
2r	2r	8ff#	8aa#
.	.	8gg	8bb
.	.	8dd#	8ff#
.	.	8ee	8gg
=114	=114	=114	=114
8r	8r	8a	8dd#
8c	8e	8g	8ee
8B	8d#	4r	4r
8c	8e	.	.
=115	=115	=115	=115
8G#	8B	2r	4.r
8A	8c	.	.
8D	8G#	.	.
8C	8A	.	8eee
=116	=116	=116	=116
2r	8r	8r	8ddd#
.	8a	8cc	8eee
.	8g#	8b	8r
.	8a	8cc	8eee
=117	=117	=117	=117
2r	8r	8r	8ddd#
.	8a	8cc	8eee
.	8g#	8b	8r
.	8a	8cc	8eee
=118	=118	=118	=118
4.r	4.r	4.r	8ddd#
.	.	.	8eee
.	.	.	8bb
8A	8a	8ee	8ccc
=119	=119	=119	=119
2a	2cc	8dd#	4.ff#
.	.	8ee	.
.	.	8dd#	.
.	.	16ee	16gg
.	.	16ff#	16aa
=120	=120	=120	=120
8g	2b	8gg	8bb
8g	.	8ee	8ee
8f#	.	8dd#	8ff#
8e	.	8ee	8gg
=121	=121	=121	=121
4.d#	2b	16ff#	16aa
.	.	16ee	16gg
.	.	16ff#	16aa
.	.	16gg	16bb
.	.	8ff#	8aa
8e	.	8ee	8gg
=122	=122	=122	=122
4.A	4cc	4.cc	16ff#
.	.	.	16ee
.	.	.	16ff#
.	.	.	16gg
.	4r	.	8ff#
8G	.	8b	8ee
=123	=123	=123	=123
16F#	4.r	16a	4.dd#
16E	.	16g#	.
16F#	.	16a	.
16G	.	16b	.
8F#	.	8a	.
8E	8E	8g	8ee
=124	=124	=124	=124
16AA	[2e	16cc	4.f#
16BB	.	16dd	.
16AA	.	16cc	.
16GG#	.	16b	.
8AA	.	8cc	.
8BB	.	8r	8g
=125	=125	=125	=125
4.C	2e_	2r	16a
.	.	.	16g
.	.	.	16a
.	.	.	16b
.	.	.	8a
8BB	.	.	8g
=126	=126	=126	=126
16AA	2e_	16cc	4.f#
16BB	.	16dd	.
16AA	.	16cc	.
16GG#	.	16b	.
8AA	.	8cc	.
8BB	.	8r	8g#
=127	=127	=127	=127
4.C	2e]	4.r	16a
.	.	.	16b
.	.	.	16a
.	.	.	16g#
.	.	.	8a
8BB	.	8g#	8b
=128	=128	=128	=128
4.AA	4.e	4.a	16cc
.	.	.	16dd
.	.	.	16cc
.	.	.	16b
.	.	.	8cc
8FF#	8A	8cc	8dd#
=129	=129	=129	=129
4GG	4G	[2b	8ee
.	.	.	16dd#
.	.	.	16ee
4DD#	4B	.	8ff#
.	.	.	16ee
.	.	.	16ff#
=130	=130	=130	=130
8EE	4E	4b]	16gg
.	.	.	16b
8G	.	.	16a
.	.	.	16b
8D#	4r	4r	16cc
.	.	.	16b
8E	.	.	16a
.	.	.	16b
=131	=131	=131	=131
4AA	8r	8r	16gg
.	.	.	16cc
.	8a	4ee	16b
.	.	.	16cc
4r	8g#	.	16dd
.	.	.	16cc
.	8a	16cc	16b
.	.	16a	16cc
=132	=132	=132	=132
8r	4d	8f#	16ccc
.	.	.	16ff#
8D	.	4aa	16ee
.	.	.	16ff#
8C#	4r	.	16gg
.	.	.	16ff#
8D	.	16ff#	16ee
.	.	16dd	16ff#
=133	=133	=133	=133
4GG	8r	8b	16gg
.	.	.	16b
.	8g	4dd	16a
.	.	.	16b
4r	8f#	.	16cc
.	.	.	16b
.	8g	16b	16a
.	.	16g	16b
=134	=134	=134	=134
8r	4c	8e	16bb
.	.	.	16ee
8C	.	4gg	16dd#
.	.	.	16ee
8BB	4r	.	16ff#
.	.	.	16ee
8C	.	16ee	16dd#
.	.	16cc	16ee
=135	=135	=135	=135
4FF#	8r	8a	16ee
.	.	.	16a
.	8f#	4cc	16g#
.	.	.	16a
4r	8e	.	16b
.	.	.	16a
.	8f#	16a	16g#
.	.	16f#	16a
=136	=136	=136	=136
8r	8B	8d#	16aa
.	.	.	16a
8BB	8r	4ff#	16g#
.	.	.	16a
8B	8f#	.	16g#
.	.	.	16a
8BB	8r	16dd#	16b
.	.	16b	16a
=137	=137	=137	=137
4E	4B	4gg	16g
.	.	.	16ee
.	.	.	16bb
.	.	.	16bb
4r	4r	4r	16bb
.	.	.	16bb
.	.	.	16bb
.	.	.	16bb
=138	=138	=138	=138
8EE	8g	8bb 8b	16g
.	.	.	16ee
8r	8r	8r	16bb
.	.	.	16bb
8BB	8d#	8aa 8b	16f#
.	.	.	16dd#
8r	8r	8r	16aa
.	.	.	16aa
=139	=139	=139	=139
4E	4e	4gg 4b	16g
.	.	.	16b
.	.	.	16gg
.	.	.	16gg
4r	4r	4r	16gg
.	.	.	16gg
.	.	.	16gg
.	.	.	16gg
=140	=140	=140	=140
8E	8e	8b 8gg	16e
.	.	.	16b
8r	8r	8r	16gg
.	.	.	16gg
8F#	8cc	8ff# 8a	16a
.	.	.	16cc
8r	8r	8r	16ff#
.	.	.	16a
=141	=141	=141	=141
4G	4b	4b 4ee 4g	16g
.	.	.	16b
.	.	.	16ee
.	.	.	16ee
4r	4r	4r	16ee
.	.	.	16ee
.	.	.	16ee
.	.	.	16ee
=142	=142	=142	=142
4G#	4d	4b 4ee	16g#
.	.	.	16b
.	.	.	16ee
.	.	.	16ee
4r	4r	4r	16ee
.	.	.	16ee
.	.	.	16ee
.	.	.	16ee
=143	=143	=143	=143
4A	4c	4ee 4cc	16a
.	.	.	16cc
.	.	.	16ee
.	.	.	16ee
4r	4r	4r	16ee
.	.	.	16ee
.	.	.	16ee
.	.	.	16ee
=144	=144	=144	=144
4A#	8ee	4gg	16a#
.	.	.	16cc#
.	4.r	.	16ee
.	.	.	16ff#
4r	.	4r	16gg
.	.	.	16ff#
.	.	.	16gg
.	.	.	16ee
=145	=145	=145	=145
2B	[2dd#	[2ff#	16a
.	.	.	16dd#
.	.	.	16ff#
.	.	.	16bb
.	.	.	16ddd#
.	.	.	16bb
.	.	.	16ff#
.	.	.	16dd#
=146	=146	=146	=146
2A	4dd#]	2ff#]	16a
.	.	.	16dd#
.	.	.	16ff#
.	.	.	16bb
.	[4b	.	16ddd#
.	.	.	16bb
.	.	.	16fff#
.	.	.	16ddd#
=147	=147	=147	=147
8G	8b]	8ee	8eee
8G	8b	8ee	8eee
8F#	8a	8dd#	8fff#
8F#	8a	8dd#	8fff#
=148	=148	=148	=148
4E	4g	2ee	4ggg
4D	4b	.	4ggg#
=149	=149	=149	=149
8C	8e	8ee	8aaa
8C	8e	8ee	8aaa
8BB	8d	8gg#	8bbb
8BB	8d	8gg#	8bbb
=150	=150	=150	=150
4AA	4c	4aa	4cccc
4AA#	4A#	4A#	4A#
=151	=151	=151	=151
[2BB	4B	4B	8B
.	.	.	16ee
.	.	.	16gg
.	8g	[4ee	8.bb
.	8e	.	.
.	.	.	16ee
=152	=152	=152	=152
2BB]	[2B	4ee]	2ff#
.	.	4dd#	.
=153	=153	=153	=153
4E	4B]	8ee	8ee
.	.	8gg	8bb
4r	4r	8ff#	8aa#
.	.	8gg	8bb
=154	=154	=154	=154
8r	8r	8dd#	8ff#
8e	8g	8ee	8gg
8d#	8f#	4r	4r
8e	8g	.	.
=155	=155	=155	=155
8B	8d#	8r	8r
8c	8e	8ee	8gg
4r	4r	8dd#	8ff#
.	.	8ee	8gg
=156	=156	=156	=156
8r	8r	8a	8dd#
8c	8e	8g	8ee
8B	8d#	4r	4r
8c	8e	.	.
=157	=157	=157	=157
8G#	8B	8r	8r
8A	8c	8cc	8ee
4r	4r	8dd	8ff
.	.	8cc	8ee
=158	=158	=158	=158
8r	8r	8ee	8ccc
8A	8c	8cc	8aa
8B	8d	4r	4r
8A	8c	.	.
=159	=159	=159	=159
8c	8a	8r	8r
8A	8c	8cc	8ee
4r	4r	8dd	8ff
.	.	8cc	8ee
=160	=160	=160	=160
8r	8r	8ee	8ccc
8f#	8d	8cc	8aa
8g	8e	4r	4r
8f#	8d	.	.
=161	=161	=161	=161
8a	8cc	8r	8r
8f#	8a	8ff#	8aa
8r	8r	8gg	8bb
8c	[8d	8ff#	8aa
=162	=162	=162	=162
8B	8d]	8gg	8ddd
8c	8f#	8aa	8aa
8B	8g	8gg	8bb
8c	[8d	8ff#	8aa
=163	=163	=163	=163
8B	8d]	8gg	8ddd
8A	8f#	8aa	8ccc
8G	8g	8bb	8bb
8r	8b	8dd	8gg
=164	=164	=164	=164
2r	8a	8cc	8ff#
.	8b	8dd	8gg
.	8f#	8a	8dd
.	8g	8b	8ee
=165	=165	=165	=165
2r	8f#	8a	8dd#
.	8g	8b	8ee
.	8d	8f#	8b
.	8e	8g	8cc
=166	=166	=166	=166
4.r	8d	8f#	8b
.	8e	8g	8cc
.	8B	8d	8g
8D	8d	8f	8g#
=167	=167	=167	=167
8C	8c	8e	8a
8D	8B	8f	8g#
8C	8c	8e	8a
8BB	8G#	8d	8b
=168	=168	=168	=168
8AA	8A	8c	8cc
8BB	8B	8B	8dd
8C	8c	8A	8ee
8C#	8c#	8e	8g
=169	=169	=169	=169
[2D	4d	4A	8f#
.	.	.	8g
.	8r	4r	8a
.	8B	.	8dd
=170	=170	=170	=170
2D_	8A#	2r	8cc#
.	8B	.	8dd
.	8G#	.	8e
.	8A	.	8cc
=171	=171	=171	=171
2D_	8G#	2r	8b
.	8A	.	8cc
.	8F#	.	8d
.	8G	.	8b
=172	=172	=172	=172
2D]	8E	8r	8c
.	8F#	8c	8a
.	8G	8B	8B
.	8E	8c#	8g
=173	=173	=173	=173
4DD	4D	4d	8e#
.	.	.	8f#
4r	4r	4r	8d
.	.	.	8a
=174	=174	=174	=174
4DD	4c	4f#	8g#
.	.	.	8a
4r	4r	4r	8d
.	.	.	8cc
=175	=175	=175	=175
4DD	4c	4f# 4A	8b
.	.	.	8cc
4r	4r	4r	8f#
.	.	.	8ee
=176	=176	=176	=176
4DD	4c	4f# 4A	8dd#
.	.	.	8ee
4r	4r	4r	8a
.	.	.	8cc
=177	=177	=177	=177
2r	2r	2r	8b
.	.	.	8cc
.	.	.	8d
.	.	.	8ee
=178	=178	=178	=178
4DD	4c	4A 4f#	8dd#
.	.	.	8ee
4r	4r	4r	8a
.	.	.	8cc
=179	=179	=179	=179
2r	2r	2r	8b
.	.	.	8cc
.	.	.	8d
.	.	.	8cc
=180	=180	=180	=180
2r	2r	2r	8b
.	.	.	8cc
.	.	.	8d
.	.	.	8cc
=181	=181	=181	=181
4.r	4.r	4.r	8b
.	.	.	8cc
.	.	.	8d
8D	8d	8dd	8dd
=182	=182	=182	=182
8C#	8c#	8cc#	8cc#
8D	8d	8dd	8dd
8AA	8A	8a	8a
8BB	8B	8b	8b
=183	=183	=183	=183
4.EE	4.E	4.e	4.e
16FF#	16F#	16f#	16f#
16GG	16G	16g	16g
=184	=184	=184	=184
8AA	8A	8a	8a
8DD	8D	8d	8d
8EE	8E	8e	8e
8FF#	8F#	8f#	8f#
=185	=185	=185	=185
16GG	16G	16g	16g
16FF#	16F#	16f#	16f#
16GG	16G	16g	16g
16AA	16A	16a	16a
8BB	8B	8b	8b
8r	8r	8r	8dd
=186	=186	=186	=186
2r	2r	2r	8cc#
.	.	.	8dd
.	.	.	8a
.	.	.	8b
=187	=187	=187	=187
[2D	[2A	[2c	4.e
.	.	.	16f#
.	.	.	16g
=188	=188	=188	=188
2D]	2A]	2c]	8a
.	.	.	8d
.	.	.	8e
.	.	.	8f#
=189	=189	=189	=189
4G	4B	4B	16g
.	.	.	16f#
.	.	.	16g
.	.	.	16a
4r	4r	4r	8g
.	.	.	8b
=190	=190	=190	=190
4G	4B	4d	16g
.	.	.	16f#
.	.	.	16g
.	.	.	16a
4r	4r	4r	8g
.	.	.	8dd
=191	=191	=191	=191
4G	4d	4g	16b
.	.	.	16a
.	.	.	16b
.	.	.	16cc
8r	8r	8r	8b
8GG	8dd	8B	8gg
=192	=192	=192	=192
4B	4G	4b	16dd
.	.	.	16cc#
.	.	.	16dd
.	.	.	16ee
8r	8r	8r	8dd
8GG	8dd	8d	8bb
=193	=193	=193	=193
4B	4G	4dd	16gg
.	.	.	16ff#
.	.	.	16gg
.	.	.	16aa
4r	4r	4r	8gg
.	.	.	8ddd
=194	=194	=194	=194
2r	2r	2r	8ccc#
.	.	.	8ddd
.	.	.	8aa
.	.	.	8bb
=195	=195	=195	=195
4g#	4b	4dd	4.ee
4g	[4a	4cc#	.
.	.	.	16ff#
.	.	.	16gg
=196	=196	=196	=196
4f#	4a]	4cc	4aa
4f	[4g	8.b	8.dd
.	.	32cc	32ee
.	.	32dd	32ff
=197	=197	=197	=197
4e	4g]	4ee	8.gg
.	.	.	16cc
4e-	4c	4gg	8ccc
.	.	.	8ccc
=198	=198	=198	=198
4d	8.d	2ff#	4ccc
.	32e	.	.
.	32f#	.	.
8.G	4g	.	[4bb
32A	.	.	.
32B	.	.	.
=199	=199	=199	=199
4c	8.c	2ee	4bb]
.	32d	.	.
.	32e	.	.
8.F#	4f#	.	[4aa
32G	.	.	.
32A	.	.	.
=200	=200	=200	=200
4B	8.B	2dd	4aa]
.	32c	.	.
.	32d	.	.
8.E	[4e	.	[4gg
32F#	.	.	.
32G	.	.	.
=201	=201	=201	=201
2A	4e]	2cc#	16gg]
.	.	.	16ff#
.	.	.	16ee
.	.	.	16dd
.	4e	.	16cc#
.	.	.	16b
.	.	.	16a
.	.	.	16g
=202	=202	=202	=202
16D	8d	4dd	8f#
16c	.	.	.
16E-	8e-	.	8g
16c	.	.	.
16D	8d	4r	8f#
16c	.	.	.
16E-	8e-	.	8g
16c	.	.	.
=203	=203	=203	=203
4D	2d	2a 2f#	8f#
.	.	.	16aa
.	.	.	16gg
4r	.	.	16ff#
.	.	.	16ee
.	.	.	16dd
.	.	.	16cc
=204	=204	=204	=204
16GG	8G	4b 4g	8b
16F	.	.	.
16AA-	8A-	.	8cc
16F	.	.	.
16GG	8G	4r	8b
16F	.	.	.
16AA-	8A-	.	8cc
16F	.	.	.
=205	=205	=205	=205
4GG	[2G	4.f 4.b	8b
.	.	.	16ddd
.	.	.	16ccc
4r	.	.	16bb
.	.	.	16aa
.	.	8dd	16gg
.	.	.	16ff
=206	=206	=206	=206
4C	4G]	4cc	8ee
.	.	.	16eee
.	.	.	16ddd
4r	4r	4r	16ccc
.	.	.	16bb
.	.	.	16aa
.	.	.	16gg
=207	=207	=207	=207
4C	4A	4d 4a	8ff#
.	.	.	16ee
.	.	.	16dd
4r	4r	4r	16cc
.	.	.	16b
.	.	.	16a
.	.	.	16g
=208	=208	=208	=208
4C	4A 4F#	4a 4d	4f#
8r	8r	8r	8r
8G	8B	8r	8r
=209	=209	=209	=209
8F#	8A	8r	4.r
8G	8B	8b	.
8D#	4r	8f#	.
8E	.	8g	[8g
=210	=210	=210	=210
8BB	4.r	8d#	8g]
8C	.	8e	8e
8r	.	8B	8g#
8A	8c	8c	8a
=211	=211	=211	=211
8G#	8B	8r	4.r
8A	8c	8cc	.
8E	4r	8g#	.
8F#	.	8a	[8a
=212	=212	=212	=212
8C#	4.r	8e	8a]
8D	.	8f#	8f#
4r	.	8c#	8a#
.	8B	8d	8b
=213	=213	=213	=213
2r	8A#	4.r	8r
.	8B	.	8dd
.	8F#	.	8a#
.	8G	[8B	8b
=214	=214	=214	=214
2r	8D#	8B]	8f#
.	8E	8G	8g
.	8r	8B	8d#
.	8c	8c	8e
=215	=215	=215	=215
2r	8B	4.r	8r
.	8c	.	8ee
.	8G#	.	8b
.	8A	8e	8cc
=216	=216	=216	=216
2r	8d	8B	8g#
.	8c	8c	8a
.	8G#	8d	8b
.	8A	8c	8cc
=217	=217	=217	=217
2r	8d	8B	8g#
.	8c	8A	8a
.	8A	8c	8ee
.	8c#	8e	8g
=218	=218	=218	=218
[2DD	2d	4A	8f#
.	.	.	8dd
.	.	4f# 4A	8cc#
.	.	.	8dd
=219	=219	=219	=219
2DD_	2c#	2g 2B-	8a
.	.	.	8b-
.	.	.	8f#
.	.	.	8g
=220	=220	=220	=220
2DD_	2d	2A 2f#	8d
.	.	.	8ddd
.	.	.	8ccc#
.	.	.	8ddd
=221	=221	=221	=221
2DD_	2c#	2B- 2g	8aa
.	.	.	8bb-
.	.	.	8ff#
.	.	.	8gg
=222	=222	=222	=222
4DD]	4d	8A 8f#	8dd
.	.	8dd	8ddd
4r	4r	8cc#	8ccc#
.	.	8dd	8ddd
=223	=223	=223	=223
2r	2r	8a	8aa
.	.	8b-	8bb-
.	.	8f#	8ff#
.	.	8g	8gg
=224	=224	=224	=224
8r	8r	8c#	8cc#
8D	8d	8d	8dd
8AA	8A	8a	8a
8BB-	8B-	8b-	8b-
=225	=225	=225	=225
16FF	8F#	8f#	8f#
16FF#	.	.	.
8GG	8G	8g	8g
8DD	8D	8d	8d
8EE-	8E-	8e-	8e-
=226	=226	=226	=226
8CC#	8C#	8c#	8c#
8DD	8D	8d	8d
16AA	16A	16a	16a
16BB-	16B-	16b-	16b-
16AA	16A	16a	16a
16BB-	16B-	16b-	16b-
=227	=227	=227	=227
8FF#	8F#	8f#	8f#
8GG	8G	8g	8g
8DD	8D	8d	8d
8EE-	8E-	8e-	8e-
=228	=228	=228	=228
8CC#	8C#	8c#	8c#
8DD	8D	8d	8d
8EE	8E	8e	8e
8FF	8F	8f	8f
=229	=229	=229	=229
8DD#	8D#	8d#	8d#
8EE	8E	8e	8e
8FF#	8F#	8f#	8f#
8GG	8G	8g	8g
=230	=230	=230	=230
8GG#	8G#	8g#	8g#
8AA	8A	8a	8a
8BB	8B	8b	8b
8C	8c	8cc	8cc
=231	=231	=231	=231
8C#	8c#	8cc#	8cc#
8D	8d	8dd	8dd
8C	8g	8ee	8ee
8AA	8a	8a	8ff#
=232	=232	=232	=232
4GG	4d	8cc	8aa
.	.	8b	8gg
4r	8r	8ee	8ccc
.	8G	8dd	8bb
=233	=233	=233	=233
4.r	8f#	8cc	8eee
.	8g	8b	8ddd
.	8f#	8cc	8eee
8GG	8g	8b	8ddd
=234	=234	=234	=234
[2G	8f#	8cc	8eee
.	8g	8b	8ddd
.	8d	8b	8ggg
.	8d	8b	8fff
=235	=235	=235	=235
2G_	2e	2cc	8ddd#
.	.	.	8eee
.	.	.	8bb
.	.	.	8ccc
=236	=236	=236	=236
2G_	2cc	2ff#	4.aa
.	.	.	16bb
.	.	.	16ccc
=237	=237	=237	=237
2G_	4b	4ff	8ddd
.	.	.	8gg
.	8cc	8ee	8aa
.	8dd	8ff	8bb
=238	=238	=238	=238
4G]	4.cc	4.ee	16ccc
.	.	.	16bb
.	.	.	16ccc
.	.	.	16ddd
8r	.	.	8eee
8GG	8ff#	8ccc	8eee
=239	=239	=239	=239
8GG	8ff#	8bb	8ddd
8GG	8ff#	8ccc	8eee
8GG	8ff#	8bb	8ddd
8GG	8ff#	8aa	8ccc
=240	=240	=240	=240
4GG	4.gg	16gg	16bb
.	.	16ff#	16aa
.	.	16gg	16bb
.	.	16aa	16ccc
8r	.	8bb	8ddd
8g	8ff#	8ccc	8eee
=241	=241	=241	=241
8g	8ff#	8bb	8ddd
8g	8ff#	8ccc	8eee
8g	8ff#	8bb	8ddd
8g	8ff#	8aa	8ccc
=242	=242	=242	=242
2g	8gg	8gg	16bb
.	.	.	16ddd
.	8b	4dd	16ggg
.	.	.	16ddd
.	8b	.	16ggg
.	.	.	16ddd
.	8b	[8dd	16bb
.	.	.	16gg
=243	=243	=243	=243
2f#	4cc	8dd]	16aa
.	.	.	16ddd
.	.	4dd	16aa
.	.	.	16ddd
.	4a	.	16ccc
.	.	.	16ddd
.	.	[8dd	16ccc
.	.	.	16ddd
=244	=244	=244	=244
2g	2b	8dd]	16bb
.	.	.	16ddd
.	.	4dd	16ggg
.	.	.	16ddd
.	.	.	16ggg
.	.	.	16ddd
.	.	[8dd	16bb
.	.	.	16gg
=245	=245	=245	=245
2f#	4cc	8dd]	16aa
.	.	.	16ddd
.	.	4dd	16aa
.	.	.	16ddd
.	4a	.	16ccc
.	.	.	16ddd
.	.	[8dd	16ccc
.	.	.	16ddd
=246	=246	=246	=246
2g	2b	8dd]	16bb
.	.	.	16ddd
.	.	4dd	16ggg
.	.	.	16ddd
.	.	.	16ggg
.	.	.	16ddd
.	.	8dd	16bb
.	.	.	16gg
=247	=247	=247	=247
2B	2dd	8gg	16bb
.	.	.	16ddd
.	.	4gg	16fff
.	.	.	16ddd
.	.	.	16fff
.	.	.	16ddd
.	.	8gg	16fff
.	.	.	16ddd
=248	=248	=248	=248
4c	4cc	4gg	8eee
.	.	.	8ggg
4r	4r	4r	8eee
.	.	.	8ccc
=249	=249	=249	=249
4c	4c	4ee	8aa
.	.	.	8eee
4r	4r	4r	8ccc
.	.	.	8aa
=250	=250	=250	=250
4d	4d	4b	8gg
.	.	.	8dd
4r	4r	4r	8b
.	.	.	8g
=251	=251	=251	=251
4D	4A	4f#	8f#
.	.	.	8d
4r	4r	4r	8c
.	.	.	8A
=252	=252	=252	=252
8GG	8B	4g	4G
8B	8d	.	.
8c	8e	8r	8r
8B	8d	8b	8dd
=253	=253	=253	=253
8r	8r	8cc	8ee
8B	8d	8b	8dd
8c	8e	8r	8r
8B	8d	8b	8dd
=254	=254	=254	=254
8r	8r	8cc	8ee
8B	8d	8b	8dd
8c	8e	8r	8r
8B	8d	8b	8dd
=255	=255	=255	=255
2r	2r	8cc	8ee
.	.	8b	8dd
.	.	8cc	8ee
.	.	8b	8dd
=256	=256	=256	=256
2r	2r	8cc	8ee
.	.	8b	8dd
.	.	8cc	8ee
.	.	8b	8dd
=257	=257	=257	=257
2r	4.r	8cc	8ee
.	.	8b	8dd
.	.	8cc	8ee
.	8g	8b	8dd
=258	=258	=258	=258
2r	8f#	8cc	8ee
.	8g	8b	8dd
.	8d#	8a	8cc
.	8e	8g	8b
=259	=259	=259	=259
4.r	8B	8f#	8a
.	8c	8e	8g
.	4r	4cc	4ee
8FF#	.	.	.
=260	=260	=260	=260
8GG	8r	8b	8dd
8E	8c	4g	8cc
8D	8d	.	8b
8F#	8d	8c	8a
=261	=261	=261	=261
4G	4d	8B	8g 8G
.	.	8b	8dd
8r	8r	8cc	8ee
8B	8d	8b	8dd
=262	=262	=262	=262
8c	8e	8G	8G
8B	8d	8b	8gg
8GG	8G	8cc	8aa
8B	8g	8b	8gg
=263	=263	=263	=263
8c	8a	8G	8G
8B	8g	8gg	8bb
8GG	8G	8aa	8ccc
8g	8b	8gg	8bb
=264	=264	=264	=264
8a	8cc	8G	8G
8g	8b	8bb	8ddd
8GG	8G	8ccc	8eee
8b	8dd	8bb	8ddd
=265	=265	=265	=265
8cc	8ee	8r	8r
8b	8dd	8b	8dd
8r	8r	8cc	8ee
8B	8d	8b	8dd
=266	=266	=266	=266
8c	8e	4r	4r
8B	8d	.	.
4r	4r	8cc	8ee
.	.	8b	8dd
=267	=267	=267	=267
8c	8e	4r	4r
8B	8d	.	.
4r	4r	8c	8e
.	.	8B	8d
=268	=268	=268	=268
8C	8E	4r	4r
8BB	8D	.	.
4r	4r	8cc	8ee
.	.	8b	8dd
=269	=269	=269	=269
8c	8e	4r	4r
8B	8d	.	.
4r	4r	8cc	8ee
.	.	8b	8dd
=270	=270	=270	=270
2r	2r	8cc	8ee
.	.	8b	8dd
.	.	8cc	8ee
.	.	8b	8dd
=271	=271	=271	=271
2r	4.r	8cc	8ee
.	.	8b	8dd
.	.	8cc	8ee
.	8g	8b	8dd
=272	=272	=272	=272
2r	8f#	8cc	8ee
.	8g	8b	8dd
.	8d#	8a	8cc
.	8e	8g	8b
=273	=273	=273	=273
4.r	8B	8f#	8a
.	8c	8e	8g
.	4r	4cc	4ee
8FF#	.	.	.
=274	=274	=274	=274
8GG	8r	8b	8dd
8E	8c	4g	8cc
8D	8d	.	8b
8F#	8d	8c	8a
=275	=275	=275	=275
4G	4d	4B	16g
.	.	.	16a
.	.	.	16g
.	.	.	16f#
8r	8r	8r	8g
8G	8B	8d	8b
=276	=276	=276	=276
4GG	4G	4B	16dd
.	.	.	16ee
.	.	.	16dd
.	.	.	16cc#
8r	8r	8r	8dd
8D	8a	8cc	8ff#
=277	=277	=277	=277
4GG	4b	4b	16gg
.	.	.	16aa
.	.	.	16gg
.	.	.	16ff#
8r	8r	8r	8gg
8G	8g	8d	8bb
=278	=278	=278	=278
4GG	4G	4b	16ddd
.	.	.	16eee
.	.	.	16ddd
.	.	.	16ccc#
4r	8r	8r	8ddd
.	8e-	8cc	8fff#
=279	=279	=279	=279
2G	4.d	4b	16ggg
.	.	.	16aaa
.	.	.	16ggg
.	.	.	16fff#
.	.	8r	8ggg
.	8e-	8cc	8fff#
=280	=280	=280	=280
16GG	16d	16b	16ggg
16G	16d	16b	16aaa
16GG	16e-	16cc	16ggg
16G	16e-	16cc	16fff#
16GG	16d	16b	16ggg
16G	16d	16b	16aaa
16GG	16e-	16cc	16ggg
16G	16e-	16cc	16fff#
=281	=281	=281	=281
16GG	16d	16b	16ggg
16G	16d	16b	16aaa
16GG	16e-	16cc	16ggg
16G	16e-	16cc	16fff#
16GG	16d	16b	16ggg
16G	16d	16b	16aaa
16GG	16e-	16cc	16ggg
16G	16e-	16cc	16fff#
=282	=282	=282	=282
4GG	4d	4b	4ggg
4GG	4d 4B	4G 4d 4b	4bbb
=283	=283	=283	=283
4GG	4d 4B	4b 4d 4G	4G
4r	4r	4r	4r
==	==	==	==
*-	*-	*-	*-
!!!RWG1: This file contains only pitch and duration data.
!!!RWG2: Transposing instruments are not transposed.
!!!RWG3: Spines may have incompatible meters.
!!!RWG4: Durations of rests and tied notes may be interpreted.
!!!RWG: Key is interpreted using the Humdrum key tool.
!!!GTL: 2 Quartetti ("Lobkowitz")
!!!AFT: stage1
!!!END: 1997/04/15
!!!KEY: 801670579
!!!EMD: Converted from MuseData to Humdrum Dec 16, 2000, by Andreas Kornstaedt using muse2kern.
!!!EMD: Manual editing by Craig Sapp, Nov 2001
